X:1
T:Springfield Mountain
M:4/4
L:1/4
K:Bb
D/2-F/2| G G B2| c- B G G| G/2- F3/2- FD/2-F/2| G G B/2- G3/2-| G F/2F/2 B c|\
 d3d/2-f/2| ff/2-c/2 c/2- d3/2| d3/2 c/2 B G| G/2- F3/2 zD/2-F/2| G G G/2- d3/2|\
 c3/2- B/2 G F| G2 z||

